X:0592
T:War's alarms entic'd my Willy.
M:C
L:1/8
Q:1/4=92 "Affectuoso"
I: || ||
N:bar 14 printed |{d}c>B {B}A>G ({G}F>)D|
Z:Jack Campin * www.campin.me.uk * 2009
K:G
d2 Be  A3 c|   BGEA           GFED |G2G2 G>AB>c |{Bc}d2cB {B}A4 |
d2 Be  A3 c|   BGEA           GFED |G2G2 G>AB>c |    B2A2    G4||
e2 e^d eBcB|   c2     cB      BAGE |c2F2 B2 e2  |    BAGF    E3F|
G2 G2  e3 d|{d}c>B {B}A>G ({G}F3)D |d2Be A3{AB}c|    B2A2    G4|]
<end>
<start>
